; generated by PrusaSlicer 2.5.0+linux-x64-GTK3 on 2022-11-19 at 05:01:22 UTC


;
;
; 

; external perimeters extrusion width = 0.45mm
; perimeters extrusion width = 0.45mm
; infill extrusion width = 0.45mm
; solid infill extrusion width = 0.45mm
; top infill extrusion width = 0.40mm
; first layer extrusion width = 0.42mm

M73 P0 R81
M73 Q0 S82
M201 X1000 Y1000 Z200 E5000 ; sets maximum accelerations, mm/sec^2
M203 X200 Y200 Z12 E120 ; sets maximum feedrates, mm / sec
M204 P1250 R1250 T1250 ; sets acceleration (P, T) and retract acceleration (R), mm/sec^2
M205 X8.00 Y8.00 Z0.40 E4.50 ; sets the jerk limits, mm/sec
M205 S0 T0 ; sets the minimum extruding and travel feed rate, mm/sec
M107
;TYPE:Custom
M862.3 P "MK3S" ; printer model check
M862.1 P0.4 ; nozzle diameter check
M115 U3.11.0 ; tell printer latest fw version
G90 ; use absolute coordinates
M83 ; extruder relative mode
M104 S230 ; set extruder temp
M140 S85 ; set bed temp
M190 S85 ; wait for bed temp
M109 S230 ; wait for extruder temp
G28 W ; home all without mesh bed level
G80 ; mesh bed leveling

G1 Z0.2 F720
G1 Y-3 F1000 ; go outside print area
G92 E0
G1 X60 E9 F1000 ; intro line
G1 X100 E12.5 F1000 ; intro line

G92 E0
M221 S95

; Don't change E values below. Excessive value can damage the printer.
M907 E430 ; set extruder motor current
G21 ; set units to millimeters
G90 ; use absolute coordinates
M83 ; use relative distances for extrusion
M900 K0.08 ; Filament gcode LA 1.5
M900 K45 ; Filament gcode LA 1.0
M107
;LAYER_CHANGE
;Z:0.2
;HEIGHT:0.2
;BEFORE_LAYER_CHANGE
G92 E0.0
;0.2


G1 E-1 F2100
G1 Z.2 F720
;AFTER_LAYER_CHANGE
;0.2
G1 Z.4
G1 X36.683 Y18.684 F10800
G1 Z.2 F720
G1 E1 F2100
M204 S800
;TYPE:Skirt/Brim
;WIDTH:0.42
G1 F1200
G1 X37.106 Y17.878 E.02853
G1 X37.601 Y17.261 E.0248
G1 X38.179 Y16.759 E.02401
G1 X39.007 Y16.286 E.02987
G1 X39.924 Y16.002 E.03012
G1 X40.757 Y15.923 E.02624
G1 X209.324 Y15.925 E5.28529
G1 X210.235 Y16.036 E.02878
M73 Q0 S81
G1 X210.998 Y16.288 E.02518
G1 X211.752 Y16.709 E.02708
G1 X212.343 Y17.203 E.02416
G1 X212.882 Y17.858 E.0266
G1 X213.309 Y18.664 E.02859
G1 X213.548 Y19.471 E.02639
G1 X213.627 Y20.274 E.02528
G1 X213.627 Y189.715 E5.31273
G1 X213.548 Y190.529 E.02563
G1 X213.31 Y191.334 E.02632
G1 X212.887 Y192.133 E.02833
G1 X212.354 Y192.786 E.02643
G1 X211.684 Y193.337 E.02722
G1 X210.961 Y193.727 E.02574
G1 X210.096 Y193.994 E.0284
G1 X209.248 Y194.077 E.02672
G1 X40.764 Y194.077 E5.28269
G1 X39.958 Y194.004 E.02537
G1 X39.196 Y193.791 E.02482
G1 X38.472 Y193.436 E.02528
G1 X37.752 Y192.887 E.02838
G1 X37.126 Y192.153 E.03025
G1 X36.753 Y191.48 E.02412
G1 X36.466 Y190.592 E.02927
G1 X36.373 Y189.718 E.02753
G1 X36.373 Y20.29 E5.31232
G1 X36.463 Y19.423 E.02732
M73 P0 R80
G1 X36.666 Y18.741 E.0223
M204 S1000
; printing object screen-spacer v1.stl id:0 copy 0
;WIPE_START
G1 F8640
G1 X37.106 Y17.878 E-.22371
G1 X37.601 Y17.261 E-.18265
G1 X38.179 Y16.759 E-.17682
G1 X39.007 Y16.286 E-.22001
G1 X39.614 Y16.098 E-.14681
;WIPE_END
G1 E-.05 F2100
G1 Z.4 F720
G1 X125.514 Y105.539 F10800
G1 Z.2 F720
G1 E1 F2100
M204 S800
;TYPE:Perimeter
;WIDTH:0.419999
G1 F1200
G1 X125 Y105.457 E.01631
G1 X124.486 Y105.539 E.01631
G1 X124.574 Y104.974 E.01794
G1 X124.486 Y104.461 E.01631
G1 X125 Y104.543 E.01631
G1 X125.514 Y104.461 E.01632
G1 X125.426 Y105.026 E.01794
G1 X125.504 Y105.48 E.01443
M204 S1000
G1 X125.856 Y106.073 F10800
M204 S800
;WIDTH:0.50199
G1 F1200
G1 X125.703 Y106.001 E.00647
;WIDTH:0.460995
G1 X125.526 Y105.918 E.00679
;WIDTH:0.419999
G1 X125 Y105.834 E.0167
G1 X124.474 Y105.918 E.0167
;WIDTH:0.460995
G1 X124.297 Y106.001 E.00679
;WIDTH:0.50199
G1 X124.12 Y106.084 E.00745
;WIDTH:0.542985
G1 X123.944 Y106.166 E.00812
;WIDTH:0.58398
G1 X123.767 Y106.249 E.00878
G1 X123.852 Y106.074 E.00878
;WIDTH:0.542985
G1 X123.937 Y105.898 E.00812
;WIDTH:0.50199
G1 X124.022 Y105.722 E.00745
;WIDTH:0.460995
G1 X124.107 Y105.546 E.00679
;WIDTH:0.419999
G1 X124.197 Y104.978 E.01803
G1 X124.107 Y104.454 E.0167
;WIDTH:0.464315
G1 X124.046 Y104.301 E.00576
;WIDTH:0.508631
G1 X123.984 Y104.149 E.00637
;WIDTH:0.552947
G1 X123.923 Y103.996 E.00697
;WIDTH:0.597262
G1 X123.861 Y103.844 E.00758
G1 X124.014 Y103.903 E.00758
;WIDTH:0.552947
G1 X124.168 Y103.963 E.00697
;WIDTH:0.508631
G1 X124.321 Y104.022 E.00637
;WIDTH:0.464315
G1 X124.474 Y104.082 E.00576
;WIDTH:0.419999
G1 X125 Y104.166 E.0167
G1 X125.526 Y104.082 E.01671
;WIDTH:0.464311
G1 X125.68 Y104.022 E.00576
;WIDTH:0.508622
G1 X125.833 Y103.963 E.00636
;WIDTH:0.552933
G1 X125.986 Y103.903 E.00697
;WIDTH:0.597244
G1 X126.139 Y103.844 E.00757
G1 X126.078 Y103.996 E.00757
;WIDTH:0.552933
G1 X126.016 Y104.148 E.00697
;WIDTH:0.508622
G1 X125.955 Y104.301 E.00636
;WIDTH:0.464311
G1 X125.893 Y104.453 E.00576
;WIDTH:0.419999
G1 X125.803 Y105.022 E.01804
G1 X125.893 Y105.546 E.0167
;WIDTH:0.460995
G1 X125.978 Y105.722 E.00679
;WIDTH:0.50199
G1 X126.063 Y105.898 E.00745
;WIDTH:0.542985
G1 X126.148 Y106.074 E.00812
;WIDTH:0.58398
G1 X126.233 Y106.249 E.00878
G1 X126.056 Y106.166 E.00878
;WIDTH:0.542985
G1 X125.911 Y106.098 E.00669
M204 S1000
G1 X125.722 Y106.464 F10800
M204 S800
;WIDTH:0.419999
G1 F1200
G1 X125.409 Y106.277 E.01143
G1 X125 Y106.212 E.01299
G1 X124.591 Y106.277 E.01299
G1 X124.061 Y106.604 E.01952
G1 X113.587 Y117.202 E.4672
G1 X113.517 Y117.264 E.00294
G1 X113.264 Y117.352 E.00841
G1 X113.03 Y117.294 E.00755
G1 X112.861 Y117.13 E.0074
G1 X112.798 Y116.885 E.00791
G1 X112.901 Y116.611 E.0092
G1 X123.44 Y105.927 E.47054
G1 X123.75 Y105.425 E.01849
G1 X123.82 Y105.017 E.01299
G1 X123.75 Y104.575 E.01402
G1 X123.44 Y104.073 E.01849
G1 X112.937 Y93.426 E.46892
G1 X112.856 Y93.324 E.00408
G1 X112.797 Y93.097 E.00736
G1 X112.849 Y92.891 E.00668
G1 X113.061 Y92.688 E.00919
G1 X113.331 Y92.66 E.00853
G1 X113.544 Y92.755 E.0073
G1 X124.085 Y103.42 E.47017
G1 X124.591 Y103.723 E.01849
G1 X125 Y103.788 E.01299
G1 X125.409 Y103.723 E.013
G1 X125.939 Y103.396 E.01953
G1 X136.339 Y92.864 E.46408
G1 X136.592 Y92.675 E.00991
G1 X136.863 Y92.667 E.0085
G1 X137.064 Y92.782 E.00726
G1 X137.181 Y92.982 E.00726
G1 X137.192 Y93.197 E.00675
G1 X137.033 Y93.467 E.00983
G1 X126.56 Y104.073 E.46733
G1 X126.25 Y104.575 E.0185
M73 P1 R80
M73 Q1 S81
G1 X126.18 Y104.983 E.013
G1 X126.25 Y105.425 E.01402
G1 X126.56 Y105.927 E.01849
G1 X137.099 Y116.61 E.47054
G1 X137.197 Y116.824 E.00737
G1 X137.166 Y117.078 E.00802
G1 X136.973 Y117.293 E.00904
G1 X136.691 Y117.348 E.00904
G1 X136.456 Y117.245 E.00803
G1 X125.939 Y106.604 E.46912
G1 X125.773 Y106.495 E.0062
M204 S1000
G1 X125.529 Y106.781 F10800
M204 S800
G1 F1200
G1 X125.292 Y106.635 E.00873
G1 X125 Y106.589 E.00928
G1 X124.708 Y106.635 E.00928
G1 X124.33 Y106.869 E.01394
G1 X113.855 Y117.467 E.4672
G1 X113.671 Y117.618 E.00748
G1 X113.419 Y117.703 E.00831
G1 X113.129 Y117.72 E.00911
G1 X112.838 Y117.619 E.00965
G1 X112.572 Y117.382 E.01121
G1 X112.435 Y117.053 E.01117
G1 X112.442 Y116.71 E.01075
G1 X112.609 Y116.369 E.01191
G1 X123.14 Y105.694 E.47015
G1 X123.393 Y105.304 E.01459
G1 X123.443 Y105.012 E.00928
G1 X123.393 Y104.696 E.01002
G1 X123.172 Y104.338 E.01321
G1 X112.61 Y93.632 E.47154
G1 X112.467 Y93.38 E.00908
G1 X112.418 Y93.095 E.00906
G1 X112.425 Y93.019 E.00239
G1 X112.532 Y92.679 E.01117
G1 X112.795 Y92.405 E.01191
G1 X113.095 Y92.286 E.01012
G1 X113.486 Y92.305 E.01229
G1 X113.789 Y92.466 E.01075
G1 X124.33 Y103.131 E.47015
G1 X124.708 Y103.365 E.01394
G1 X125 Y103.411 E.00928
G1 X125.292 Y103.365 E.00928
G1 X125.671 Y103.131 E.01395
G1 X136.07 Y92.599 E.46408
G1 X136.348 Y92.373 E.01122
G1 X136.6 Y92.282 E.00841
G1 X136.959 Y92.299 E.01127
G1 X137.245 Y92.446 E.01008
G1 X137.464 Y92.682 E.01008
G1 X137.571 Y93.047 E.01193
G1 X137.539 Y93.36 E.00985
G1 X137.312 Y93.72 E.01335
G1 X126.86 Y104.306 E.46643
G1 X126.607 Y104.696 E.0146
G1 X126.557 Y104.988 E.00928
G1 X126.607 Y105.304 E.01002
G1 X126.828 Y105.662 E.01321
G1 X137.333 Y116.31 E.46898
G1 X137.503 Y116.553 E.00931
G1 X137.576 Y116.837 E.00917
G1 X137.53 Y117.19 E.01116
G1 X137.319 Y117.505 E.0119
G1 X137.097 Y117.656 E.00842
G1 X136.817 Y117.719 E.00899
G1 X136.524 Y117.697 E.00921
G1 X136.211 Y117.534 E.01107
G1 X125.671 Y106.869 E.47015
G1 X125.58 Y106.813 E.00333
M204 S1000
G1 X125.332 Y107.09 F10800
M204 S800
G1 F1200
G1 X125.175 Y106.994 E.00576
G1 X125 Y106.966 E.00557
G1 X124.825 Y106.994 E.00557
G1 X124.598 Y107.134 E.00836
G1 X114.103 Y117.752 E.46809
G1 X113.782 Y117.982 E.01239
G1 X113.351 Y118.105 E.01406
G1 X112.945 Y118.071 E.01279
G1 X112.562 Y117.896 E.01319
G1 X112.263 Y117.601 E.01319
G1 X112.083 Y117.221 E.01319
G1 X112.044 Y116.802 E.01319
G1 X112.118 Y116.504 E.00964
G1 X112.318 Y116.128 E.01334
G1 X122.872 Y105.429 E.47119
G1 X123.036 Y105.182 E.00931
G1 X123.066 Y105.007 E.00557
G1 X123.036 Y104.818 E.00601
G1 X122.903 Y104.603 E.00793
G1 X112.318 Y93.873 E.47257
G1 X112.11 Y93.507 E.0132
G1 X112.04 Y93.093 E.01319
G1 X112.089 Y92.774 E.0101
G1 X112.257 Y92.416 E.0124
G1 X112.573 Y92.098 E.01406
G1 X112.945 Y91.929 E.01281
G1 X113.251 Y91.901 E.00964
G1 X113.671 Y91.965 E.01333
G1 X114.034 Y92.178 E.01319
G1 X124.598 Y102.866 E.47119
G1 X124.825 Y103.006 E.00836
G1 X125 Y103.034 E.00557
G1 X125.175 Y103.006 E.00557
G1 X125.403 Y102.866 E.00837
G1 X135.802 Y92.334 E.46408
G1 X136.149 Y92.05 E.01406
G1 X136.532 Y91.909 E.0128
G1 X136.84 Y91.904 E.00965
G1 X137.202 Y91.991 E.01165
G1 X137.473 Y92.145 E.0098
G1 X137.696 Y92.365 E.0098
G1 X137.854 Y92.635 E.0098
G1 X137.936 Y92.936 E.0098
G1 X137.944 Y93.302 E.01147
G1 X137.816 Y93.646 E.0115
G1 X137.592 Y93.973 E.01243
G1 X127.129 Y104.57 E.46694
G1 X126.964 Y104.818 E.00931
G1 X126.934 Y104.993 E.00557
G1 X126.964 Y105.182 E.00601
G1 X127.097 Y105.397 E.00793
G1 X137.601 Y116.045 E.46898
G1 X137.802 Y116.301 E.01021
G1 X137.943 Y116.697 E.01318
G1 X137.941 Y117.118 E.01318
G1 X137.8 Y117.501 E.01279
G1 X137.506 Y117.84 E.01406
G1 X137.172 Y118.03 E.01207
G1 X136.73 Y118.109 E.01405
G1 X136.329 Y118.035 E.01281
G1 X135.966 Y117.822 E.01319
G1 X125.383 Y107.122 E.47189
M204 S1000
G1 X125.134 Y107.399 F10800
M204 S800
;TYPE:External perimeter
G1 F1200
G1 X125 Y107.343 E.00456
G1 X124.866 Y107.399 E.00456
G1 X114.279 Y118.111 E.47222
G1 X113.944 Y118.323 E.01245
G1 X113.587 Y118.438 E.01174
G1 X113.122 Y118.484 E.01465
G1 X112.588 Y118.345 E.01731
G1 X112.134 Y118.031 E.01731
G1 X111.814 Y117.581 E.01731
G1 X111.668 Y117.048 E.01731
G1 X111.687 Y116.652 E.01245
G1 X111.797 Y116.294 E.01174
G1 X112.026 Y115.886 E.01466
G1 X122.603 Y105.165 E.47222
G1 X122.689 Y105.002 E.00575
G1 X122.635 Y104.868 E.00456
G1 X112.027 Y94.114 E.4736
G1 X111.754 Y93.635 E.01732
G1 X111.661 Y93.09 E.01731
G1 X111.76 Y92.547 E.01731
G1 X111.949 Y92.198 E.01245
G1 X112.225 Y91.904 E.01263
G1 X112.588 Y91.656 E.01379
G1 X112.969 Y91.542 E.01248
G1 X113.353 Y91.529 E.01206
G1 X113.803 Y91.61 E.01433
G1 X114.279 Y91.889 E.0173
G1 X124.866 Y102.601 E.47222
G1 X125 Y102.657 E.00456
G1 X125.134 Y102.601 E.00456
G1 X135.534 Y92.069 E.46408
G1 X135.816 Y91.832 E.01156
G1 X136.197 Y91.61 E.01382
G1 X136.585 Y91.526 E.01245
G1 X137.152 Y91.563 E.01781
G1 X137.536 Y91.72 E.013
G1 X137.866 Y91.97 E.013
G1 X138.121 Y92.298 E.013
G1 X138.282 Y92.68 E.013
G1 X138.339 Y93.094 E.01313
G1 X138.286 Y93.482 E.01228
G1 X138.135 Y93.851 E.0125
G1 X137.872 Y94.227 E.01437
G1 X127.397 Y104.835 E.46745
G1 X127.311 Y104.998 E.00576
M73 Q1 S80
G1 X127.365 Y105.132 E.00456
G1 X137.87 Y115.781 E.46898
G1 X138.131 Y116.114 E.01329
G1 X138.317 Y116.634 E.0173
G1 X138.313 Y117.186 E.0173
G1 X138.188 Y117.563 E.01245
G1 X137.967 Y117.9 E.01263
G1 X137.653 Y118.207 E.01379
G1 X137.298 Y118.385 E.01245
G1 X136.736 Y118.489 E.01792
G1 X136.197 Y118.39 E.01719
G1 X135.721 Y118.111 E.01731
G1 X125.176 Y107.441 E.47034
M204 S1000
G1 X125.134 Y107.253 F10800
;WIPE_START
G1 F8640
G1 X125 Y107.343 E-.04665
G1 X124.866 Y107.399 E-.03356
G1 X122.218 Y110.078 E-.8698
;WIPE_END
G1 E-.05 F2100
G1 Z.4 F720
G1 X123.861 Y103.844 F10800
G1 Z.2 F720
G1 E1 F2100
M204 S800
;TYPE:Perimeter
;WIDTH:0.597262
G1 F1200
G1 X123.735 Y103.719 E.00817
;WIDTH:0.583368
G1 X113.259 Y93.109 E.67005
M204 S1000
;WIPE_START
G1 F8640
G1 X116.15 Y96.037 E-.95
;WIPE_END
G1 E-.05 F2100
G1 Z.4 F720
G1 X136.694 Y93.16 F10800
G1 Z.2 F720
G1 E1 F2100
M204 S800
G1 F1200
G1 X126.266 Y103.718 E.66689
;WIDTH:0.597244
G1 X126.139 Y103.844 E.00821
M204 S1000
;WIPE_START
G1 F8640
G1 X126.266 Y103.718 E-.04114
G1 X129.031 Y100.917 E-.90886
;WIPE_END
G1 E-.05 F2100
G1 Z.4 F720
G1 X136.743 Y116.892 F10800
G1 Z.2 F720
G1 E1 F2100
M204 S800
;WIDTH:0.583368
G1 F1200
G1 X126.265 Y106.281 E.67014
;WIDTH:0.58398
G1 X126.233 Y106.249 E.00203
M204 S1000
;WIPE_START
G1 F8640
G1 X126.265 Y106.281 E-.01042
G1 X129.124 Y109.177 E-.93958
;WIPE_END
G1 E-.05 F2100
G1 Z.4 F720
G1 X113.266 Y116.884 F10800
G1 Z.2 F720
G1 E1 F2100
M204 S800
;WIDTH:0.583368
G1 F1200
G1 X123.735 Y106.281 E.66961
;WIDTH:0.58398
G1 X123.767 Y106.249 E.00203
M204 S1000
;WIPE_START
G1 F8640
G1 X123.735 Y106.281 E-.01042
G1 X120.876 Y109.177 E-.93958
;WIPE_END
G1 E-.05 F2100
G1 Z.4 F720
G1 X125.37 Y105.368 F10800
G1 Z.2 F720
G1 E1 F2100
M204 S800
;TYPE:Solid infill
;WIDTH:0.433003
G1 F1200
G1 X124.627 Y104.625 E.0341
M204 S1000
; stop printing object screen-spacer v1.stl id:0 copy 0
;LAYER_CHANGE
;Z:0.4
;HEIGHT:0.2
;BEFORE_LAYER_CHANGE
G92 E0.0
;0.4


;WIPE_START
G1 F8640
G1 X125.37 Y105.368 E-.24277
;WIPE_END
G1 E-.75723 F2100
G1 Z.4 F720
;AFTER_LAYER_CHANGE
;0.4
M104 S240 ; set temperature
M140 S90 ; set bed temperature
G1 Z.6
G1 X213.627 Y105.368 F10800
G1 Z.4 F720
G1 E1 F2100
;TYPE:Skirt/Brim
;WIDTH:0.42
G1 F3000
G1 X213.627 Y189.715 E2.64466
G1 X213.548 Y190.529 E.02563
G1 X213.31 Y191.334 E.02632
G1 X212.887 Y192.133 E.02833
G1 X212.354 Y192.786 E.02643
G1 X211.684 Y193.337 E.02722
G1 X210.961 Y193.727 E.02574
G1 X210.096 Y193.994 E.0284
G1 X209.248 Y194.077 E.02672
G1 X40.764 Y194.077 E5.28269
G1 X39.958 Y194.004 E.02537
G1 X39.196 Y193.791 E.02482
G1 X38.472 Y193.436 E.02528
G1 X37.752 Y192.887 E.02838
G1 X37.126 Y192.153 E.03025
G1 X36.753 Y191.48 E.02412
G1 X36.466 Y190.592 E.02927
G1 X36.373 Y189.718 E.02753
G1 X36.373 Y20.29 E5.31232
G1 X36.463 Y19.423 E.02732
G1 X36.683 Y18.684 E.02419
G1 X37.106 Y17.878 E.02853
G1 X37.601 Y17.261 E.0248
G1 X38.179 Y16.759 E.02401
G1 X39.007 Y16.286 E.02987
G1 X39.924 Y16.002 E.03012
G1 X40.757 Y15.923 E.02624
G1 X209.324 Y15.925 E5.28529
G1 X210.235 Y16.036 E.02878
G1 X210.998 Y16.288 E.02518
G1 X211.752 Y16.709 E.02708
G1 X212.343 Y17.203 E.02416
G1 X212.882 Y17.858 E.0266
G1 X213.309 Y18.664 E.02859
G1 X213.548 Y19.471 E.02639
G1 X213.627 Y20.274 E.02528
G1 X213.627 Y105.308 E2.66619
; printing object screen-spacer v1.stl id:0 copy 0
;WIPE_START
G1 F8640
G1 X213.627 Y109.422 E-.95
;WIPE_END
G1 E-.05 F2100
G1 Z.6 F720
G1 X125.075 Y105.589 F10800
G1 Z.4 F720
G1 E1 F2100
M204 S800
;TYPE:Perimeter
;WIDTH:0.449999
G1 F1500
G1 X125 Y105.577 E.00257
G1 X124.346 Y105.681 E.02241
G1 X124.458 Y104.972 E.02431
G1 X124.346 Y104.319 E.02241
G1 X125 Y104.423 E.02241
G1 X125.654 Y104.319 E.02242
G1 X125.542 Y105.028 E.02431
G1 X125.654 Y105.681 E.02241
G1 X125.134 Y105.598 E.01781
M204 S1000
G1 X125.061 Y105.994 F10800
M204 S800
G1 F2700
G1 X125 Y105.984 E.00211
G1 X124.432 Y106.074 E.01946
G1 X124.075 Y106.311 E.01451
;WIDTH:0.421571
G1 X123.718 Y106.548 E.0135
;WIDTH:0.393142
G1 X113.394 Y116.997 E.42777
;WIDTH:0.383887
G1 X113.293 Y117.067 E.00346
G1 X113.166 Y117.05 E.00362
G1 X113.079 Y116.924 E.00436
G1 X113.151 Y116.758 E.00512
;WIDTH:0.393142
G1 X123.468 Y106.302 E.42777
;WIDTH:0.393491
G1 X123.504 Y106.266 E.00146
;WIDTH:0.421745
G1 X123.729 Y105.928 E.0128
;WIDTH:0.449999
G1 X123.954 Y105.59 E.01375
G1 X124.051 Y104.977 E.02101
G1 X123.954 Y104.41 E.01946
G1 X123.597 Y103.83 E.02307
;WIDTH:0.400873
G1 X123.468 Y103.698 E.00547
;WIDTH:0.393143
G1 X113.142 Y93.236 E.42807
;WIDTH:0.384971
G1 X113.078 Y93.099 E.0043
G1 X113.089 Y93.04 E.0017
G1 X113.222 Y92.931 E.00491
G1 X113.386 Y92.995 E.005
;WIDTH:0.393143
G1 X123.718 Y103.452 E.42807
;WIDTH:0.400873
G1 X123.847 Y103.576 E.00534
;WIDTH:0.449999
